X: 695
T: John Henry
B: jims roots
M:4/4
L:1/8
Q: 1/4=100
K:Gmaj
V:1 
d2 | "G"[gd] [g2d][gd]- [gd]d=fe | de_B=B [G,2G2]-[G,G]d | [gd][g2d] [gd] [g2d]=fe | "D"[d3F][dF] [d2F](3def |
"G"[gd][g2d]_a =ag2d |  de_B-=B [G,4G4] | Bd_BA [GG,][DG,][EG,][GG,] | [G_B][=B2G][BG] [B2G]A_B ||
([=B4G] [B3G])_B- | =Bd_BA "D"GDED |  "G"[B,4G][B,4G] | !slide!BdBA GDEG | !slide!B2!slide!B2 [G,4G4] |
!slide!BdBA GD"D"_BA | "G"[G4B,] [G2 B,] ||
% abcbook-tune_id 6298c25d7d9d60991c9a5129


% abcbook-boost 0
% abcbook-tablature 
% abcbook-transpose 
% abcbook-lastupdated 1654178399267
% abcbook-soundfonts 
% abcbook-repeats 1


